X:1
T: Dunnottar Castle
C:Gordy Euler
R:Reel
Q: 232
K:Em
M:4/4
L:1/8
|:E3B GE B,A,|B,E CE B,E B,D|E3B GE B,E|GF EG F4|
E3B GE B,A,|B,E CE B,E B,D|EG BG FG EG|FD B,D E4:|
|:BA GF EF GA|B3G EF GA|BA Bc Bc BA|GF GA F4|
|1BA GF EF GA|B3G EF GA|BG EG Bc AA|GA FG E4:|
|2E3B GE B,A,|B,E CE B,E B,D|EG BG FG EG|FD B,D E4:|
